X: 31598
T: Palmer's Gate
R: reel
M: 4/4
K: Amajor
K:F#m
|:c~F3 ABcB|BAcA BAFB|A-~A3 cBAB|cfec B2AB|
c~F3 ABcB|BAcB AFEF|ABcf fecB|BAFE F2AB:|
|:c~f3 cfeg|a2ge fecB|A-~A3 eAcB|ABce fecB|
cffe~f3g|afge fecB|ABcf fecA|BAFE F2AB:|

